X:1
T:Пляска Сахарет
T:„Пляска Сахарет.“
T:ФОКС-ТРОТ.
T:Муз. Матвея БЛАНТЕРА
T:Слова К. ПОДРЕВСКОГО.
T:Зак. № 113.
T:Зак. № 113.
T:Зак. № 113.
C:Матвей Блантер
Z:Константин Подревский
Z:Зак. № 113.
%%score 1 { ( 2 4 ) | ( 3 5 ) }
L:1/8
Q:1/4=116
M:2/4
K:A
V:1 treble nm="Voice"
V:2 treble nm="Piano"
V:4 treble 
V:3 bass 
V:5 bass 
V:1
"^Con motto." z4 | z4 |: F2- F/ A/ G/ A/ | F2- F/ A/ G/ A/ | F2- F/ G/ A/ B/ | c c (dc) | %6
w: ||1. Джон * и- дет в при-|тон * что в позд- ний|час * рас крыл во|тьме свой глаз *|
w: ||2. Вот * ви- но он|пьет * пля- сунь- и|взгляд * вле- чет е|го как яд *|
w: ||3. Джон * он смел си|лен * он оп я|нен * вот к ней под|хо дит он *|
 B2- B/ d/ c/ d/ | B2- B/ d/ c/ d/ | B2- B/ A/ G/ F/ | A G B (A/G/) | F2- F/ A/ G/ A/ | %11
w: Так * ли- хой мо-|ряк * спу- ска- ет|флаг * в глу- хом уг-|лу Мо- ро- кко *|Там * ноч- ным гос-|
w: Нет * не зна- ет|свет * чтоб Са- ха-|рет * лю- бил бы|кто в Мо- ро- кко *|„Эй“! * Кри- чит он|
w: „Стой, * ты приз мор|ской * и над тол|пой * под няв е|е вы со ко *|С ней * в миг у две-|
 F2- F/ A/ G/ A/ | F2- F/ G/ A/ B/ | c c (dc) | f2- f/f/e/d/ | c2- c/ c/ B/ A/ | B2- B/ A/ G/ F/ | %17
w: тям * да- ют ви-|на * и гос ти|пьют до дна *|Там * приж- мешь ты|сам * к сво- им ус-|там * цве- ток по-|
w: ей * цве- ток но-|чей * дол- жна ты|быть мо- ей *|Но * как мо ря|дно * так все тем-|но * в ду- ше вос-|
w: рей * в стра- не род-|ной * ты бу- дешь|мне же- ной *|След * их скры- ла|ночь * и Са- ха-|рет * уж нет в мо-|
 c2 C C | (3B B B A3/2 A/ | (3G G G F2 | !~(!c3 !~)!C ||"^ПРИПЕВ." C4- | C (D/ E/) F (E/ D/) | %23
w: ро- ка. шум|хо- хот и звон пей|ве- се- ло Джон|Джон. *|Здесь|* где _ но- чи _|
w: то- ка. Сквозь|хо- хот и звон в от-|вет слы- шит Джон|Джон. *|||
w: ро- ко. Эх!|Ве- тер мор- ской о|ней пес- ню споя|Сной! *|||
 F2 C2 | z4 | C4- | C (^D/^E/) F G/A/ | c4- | c4 | B4- | B F B F | A2 F2- | F z z2 | G ^D z2 | %34
w: си- ни||здесь|* где * жизнь как *|бред||жжет|* ог- нем пус|ты- ни||пля- ска|
w: |||||||||||
w: |||||||||||
 z2 ^D ^E | G4 | z4 | z C ^D ^E | F G A F | z/ F/ A/ F/ A/ F/ A | z4 | z C ^D ^E | F G A F | %43
w: Са- ха-|рет.||Е- я дви-|же- ний влас- тью|пус- кай тол- па пья- на||го- рят зве-|ня за- пясть- я|
w: |||||||||
w: |||||||||
 z F G^A | Bc dc | z/ B/ d/ B/ d/ B/ d | z4 | z/ A/ c/ A/ c/ A/ c | z4 | B F2 G | A G2 A/G/ |1 F4 | %52
w: и ве- ет|зной- ной страсть- ю|Но Са- ха- рет бле- дна,||спо- кой- на, хо- ло- дна||не и- щет|счасть- я о- *|на.|
w: |||||||||
w: |||||||||
 z4 :|2 F4- | F2 z2 |] %55
w: |на.||
w: |||
w: |||
V:2
 ([Ff]/[Gg]/[Aa] [Ff][Ee] | [Cc][B,B] [A,A][G,G]) |: F2- F/(A/G/A/ | F2-) F/(A/G/A/ | %4
 F2-) F/(G/A/B/ | (c)c dc) | B2- B/(d/c/d/ | B2-) B/(d/c/d/ | B2-) B/A/G/F/ | %9
 A[B,^EG] [DEGB][CEA]/G/ | F2- F/(A/G/A/ | F2-) F/A/G/A/ | F2- F/G/A/B/ | cc dc | %14
 [Ff]2- [Ff]/[Ff]/[Ee]/[Dd]/ | [Cc]2- [Cc]/[Cc]/[B,B]/[A,A]/ | [B,B]2- [B,B]/[A,A]/[G,G]/[F,F]/ | %17
 !arpeggio![B,C^EG]2 !arpeggio!!fermata![CEGBc]2 | (3([GB][GB][GB]) [FA]2 | %19
 (3([B,EG][B,EG][B,EG]) [A,DF]2 | !arpeggio![C^EGc]3 C ||"^La melodia ben cantabile." C4- | %22
 C (D/E/) F(E/D/) | (F2 C2) | z E D!tenuto!E/!tenuto!D/ | C4- | %26
 C[^D,^D]/[^E,^E]/ [F,F][G,G]/[A,A]/ | [Cc]4- | [Cc]4 | B4- | [GB](F [GB][FG]) | (A2 F2-) | %32
 F (FGA | G^D ^EF-) | F^E ^DE | (G [G,B,F]2 [G,B,^E]- | [G,B,E][G,B,=E] [G,B,^D][G,B,=D]) | %37
 z (!>!C/[F,A,]/!>!^D/[F,A,]/!>!^E/[F,A,]/ | !>!F/[A,C]/ !>!G/[A,C]/ !>!A/[A,C]/ !>!F/[A,C]/) | %39
 z/ [^DF]/[^B,A]/[DF]/ [B,A]/[DF]/!p![B,A] | z/ ([^df]/[^Ba]/[df]/ [Ba]/[df]/[Ba]) | %41
 z (C/[F,A,]/^D/[F,A,]/^E/[F,A,]/ | F/[A,C]/ G/[A,C]/ A/!mf![A,C]/ F/[A,C]/) | z F G ^A | B c d c | %45
 z/ ([GB]/[Fd]/[GB]/ [Fd]/[GB]/[Fd]) | (d'/b/g/f/ d/B/G/F/) | z/ (A/[Fc]/A/ [Fc]/A/[Fc]) | %48
 (d'/c'/a/f/ d/c/A/F/) | B !>![DF]2 [DFG] | A G2 A/G/ |1 ([Ff]/[Gg]/[Aa] [Ff][Ee] | %52
 [Cc][B,B] [A,A][G,G]) :|2!>(! [A,CF]4- | [A,CF]2!>)! z2 |] %55
V:3
!f! F,/!>(!G,/A, F,E, | C,B,, A,,G,,!>)! |:!p! [F,,C,]2 !>![D,,A,,]2 | [F,,C,]2 !>![D,,A,,]2 | %4
 [F,,C,]2 [C,,C,]2 | (F,,C, F,C,) | (B,,F, !>!=G,2) | (B,,F, !>!=G,2) | B,,F, F,,F, | C,^E, C,,E, | %10
 [F,,C,]2 !>![D,,A,,]2 | [F,,C,]2 !>![D,,A,,]2 | [F,,C,]2 [C,,C,]2 | (F,,C, F,C,) | (F,2 G,2) | %15
 (E,2 F,2) | (D,2 D,2) | C,2 E,,2 | (C,2 F,2 | E,2 D,2) | [C,G,B,]2 !fermata!C,,2 || %21
!p! F,,C, C,,C, | F,, !>![A,,,A,,]2 [D,,,D,,] | F,,C, C,,C, | (F,,C, !>!^B,,2) | F,,C, C,,C, | %26
 F,,C, C,,C, | ([F,,C,][C,A,] [^G,,^G,][A,,A,] | [B,,B,][A,,A,] [G,,G,][A,,A,]) | .B,,.F, .G,,.F, | %30
 B,,F, G,,F, | F,,C, C,,C, | F,,C, C,,C, | G,,^D, ^D,,D, | G,,^D, ^D,,D, | %35
 [C,,C,] [D,,D,]2 [D,,D,]- | [D,,D,][G,,,G,,] [B,,,B,,][=D,,=D,] | !>!F,,!<(!C, C,,C, | %38
 F,,C, C,,C,!<)! |!mf!!>(! !>!G,,2 [^D,,^D,]2!>)! | G,,2 [^D,,^D,]2 |!p! F,,!<(!C, C,,C, | %42
 F,,C,!<)! C,,"^cresc."C, | B,,F, G,,F, | B,,F, G,,F, |!f! B,,[F,G,D] F,,[F,G,D] | %46
!>(! B,,[F,G,D] F,,[F,G,D] | F,,!>)!!mf![C,F,A,] C,,[C,F,A,] | F,,[C,F,A,] C,,[C,F,A,] | %49
 (B,,G, F,D,) | C,2 C,,2 |1!f! F,/!>(!G,/A, F,E, | C,B,, A,,!p!G,,!>)! :|2!mf! C,4- |!p! C,2 z2 |] %55
V:4
 x4 | x4 |: z [A,C] !>!^B,2 | z [A,C] !>!^B,2 | z [A,C]z[A,C] | [E^A][EA] [EA][EA] | z [DF] ^E2 | %7
 z [DF] ^E2 | z [DF]2 z | x4 | z [A,C] !>!^B,2 | z [A,C] !>!^B,2 | z [A,C] z [A,C] | %13
 [E^A][EA] [EA][EA] | z [Bd]3 | z [FA]3 | z [DF]3 | x4 | C4 | x4 | x4 || %21
 z .[F,B,]/.[F,A,]/ .[F,B,].[F,A,]/.[F,A,]/ | [F,A,][F,A,] z [F,A,] | %23
 z [A,C]/[A,C]/ z [A,C]/[A,C]/ | z/ A,/E/A,/ z/ A,3/2 | %25
 z .[F,B,]/.[F,A,]/ .[F,B,].[F,A,]/.[F,A,]/ | [F,A,]z[A,C] z | z [FA]/[FA][FA][FA]/- | %28
 [FA]/[FA][FA][FA][FA]/ | z .[DG]/.[DF]/ .[DG].[DG]/.[DF]/ | DD DD | %31
 z [A,C]/[A,C]/ z [A,C]/[A,C]/ | z [A,C] [A,C][A,C] | z [G,B,] [G,B,][G,B,] | %34
 z [G,^B,] [G,B,][G,B,] | x4 | x4 | z C ^D ^E | F G A F | x4 | x4 | z C ^D ^E | F G A F | %43
 z (F/[B,D]/ G/[B,D]/ ^A/[B,D]/ | B/[DF]/ c/[DF]/ d/[DF]/ c/[DF]/) | x4 | x4 | x4 | x4 | x4 | %50
 z [B,^E]2 [B,E] |1 x4 | x4 :|2 x4 | x4 |] %55
V:5
 x4 | x4 |: x4 | x4 | x4 | x4 | B,,2 x2 | B,,2 x2 | x4 | x4 | x4 | x4 | x4 | x4 | B,,4 | A,,4 | %16
 G,,4 | C,4 | x4 | x4 | x4 || x4 | x4 | x4 | x4 | x4 | x4 | x4 | x4 | x4 | x4 | x4 | x4 | x4 | x4 | %35
 x4 | x4 | x4 | x4 | x4 | x4 | x4 | x4 | x4 | x4 | x4 | x4 | x4 | x4 | x4 | x4 |1 F,, z z2 | x4 :|2 %53
 !tenuto!F,,2 !tenuto!C,,2 | !tenuto!F,,2 z2 |] %55

